report_00007_2020-12-11T15:55:29.892Z/server-response-time/comparison/sorted/9_vs_10.svg

<svg width="640" height="500" xmlns="http://www.w3.org/2000/svg" xmlns:xlink="http://www.w3.org/1999/xlink"><path fill="#fff" d="M0 0h640v500H0z"/><defs><path id="d" stroke-width=".222" stroke="currentColor" d="M-1-1h2v2h-2z"/><path id="b" stroke-width=".222" stroke="currentColor" d="M0-1.33l-1.33 2h2.66z"/><path id="f" stroke-width=".222" stroke="currentColor" d="M0 1.33L1.265.411.782-1.067l-1.564-.009-.483 1.487z"/><use xlink:href="#b" id="c" stroke="currentColor" transform="rotate(180)"/><use xlink:href="#d" id="e" stroke="currentColor" transform="rotate(45)"/><circle id="a" stroke-width=".222" stroke="currentColor" cx="0" cy="0" r="1"/></defs><g fill="none" color="#000" stroke="currentColor"><path stroke="#000" d="M53.9 415.3h9m552.1 0h-9"/><text transform="translate(45.6 419.2)" stroke="none" fill="#000" font-family="Arial" font-size="12" text-anchor="end"><tspan>1.4</tspan></text></g><g fill="none" color="#000" stroke="currentColor"><path stroke="#000" d="M53.9 342.8h9m552.1 0h-9"/><text transform="translate(45.6 346.7)" stroke="none" fill="#000" font-family="Arial" font-size="12" text-anchor="end"><tspan>1.6</tspan></text></g><g fill="none" color="#000" stroke="currentColor"><path stroke="#000" d="M53.9 270.3h9m552.1 0h-9"/><text transform="translate(45.6 274.2)" stroke="none" fill="#000" font-family="Arial" font-size="12" text-anchor="end"><tspan>1.8</tspan></text></g><g fill="none" color="#000" stroke="currentColor"><path stroke="#000" d="M53.9 197.8h9m552.1 0h-9"/><text transform="translate(45.6 201.7)" stroke="none" fill="#000" font-family="Arial" font-size="12" text-anchor="end"><tspan>2</tspan></text></g><g fill="none" color="#000" stroke="currentColor"><path stroke="#000" d="M53.9 125.3h9m552.1 0h-9"/><text transform="translate(45.6 129.2)" stroke="none" fill="#000" font-family="Arial" font-size="12" text-anchor="end"><tspan>2.2</tspan></text></g><g fill="none" color="#000" stroke="currentColor"><path stroke="#000" d="M53.9 52.8h9m552.1 0h-9"/><text transform="translate(45.6 56.7)" stroke="none" fill="#000" font-family="Arial" font-size="12" text-anchor="end"><tspan>2.4</tspan></text></g><g fill="none" color="#000" stroke="currentColor"><path stroke="#000" d="M53.9 446v-9m0-418.9v9"/><text transform="translate(53.9 467.9)" stroke="none" fill="#000" font-family="Arial" font-size="12" text-anchor="middle"><tspan>0</tspan></text></g><g fill="none" color="#000" stroke="currentColor"><path stroke="#000" d="M110.6 446v-9m0-418.9v9"/><text transform="translate(110.6 467.9)" stroke="none" fill="#000" font-family="Arial" font-size="12" text-anchor="middle"><tspan>10</tspan></text></g><g fill="none" color="#000" stroke="currentColor"><path stroke="#000" d="M167.3 446v-9m0-418.9v9"/><text transform="translate(167.3 467.9)" stroke="none" fill="#000" font-family="Arial" font-size="12" text-anchor="middle"><tspan>20</tspan></text></g><g fill="none" color="#000" stroke="currentColor"><path stroke="#000" d="M223.9 446v-9m0-418.9v9"/><text transform="translate(223.9 467.9)" stroke="none" fill="#000" font-family="Arial" font-size="12" text-anchor="middle"><tspan>30</tspan></text></g><g fill="none" color="#000" stroke="currentColor"><path stroke="#000" d="M280.6 446v-9m0-418.9v9"/><text transform="translate(280.6 467.9)" stroke="none" fill="#000" font-family="Arial" font-size="12" text-anchor="middle"><tspan>40</tspan></text></g><g fill="none" color="#000" stroke="currentColor"><path stroke="#000" d="M337.3 446v-9m0-418.9v9"/><text transform="translate(337.3 467.9)" stroke="none" fill="#000" font-family="Arial" font-size="12" text-anchor="middle"><tspan>50</tspan></text></g><g fill="none" color="#000" stroke="currentColor"><path stroke="#000" d="M394 446v-9m0-418.9v9"/><text transform="translate(394 467.9)" stroke="none" fill="#000" font-family="Arial" font-size="12" text-anchor="middle"><tspan>60</tspan></text></g><g fill="none" color="#000" stroke="currentColor"><path stroke="#000" d="M450.6 446v-9m0-418.9v9"/><text transform="translate(450.6 467.9)" stroke="none" fill="#000" font-family="Arial" font-size="12" text-anchor="middle"><tspan>70</tspan></text></g><g fill="none" color="#000" stroke="currentColor"><path stroke="#000" d="M507.3 446v-9m0-418.9v9"/><text transform="translate(507.3 467.9)" stroke="none" fill="#000" font-family="Arial" font-size="12" text-anchor="middle"><tspan>80</tspan></text></g><g fill="none" color="#000" stroke="currentColor"><path stroke="#000" d="M564 446v-9m0-418.9v9"/><text transform="translate(564 467.9)" stroke="none" fill="#000" font-family="Arial" font-size="12" text-anchor="middle"><tspan>90</tspan></text></g><path stroke="#000" d="M53.9 18.1V446H615V18.1H53.9z" fill="none" color="#000"/><text transform="translate(275.6 485.9)" stroke="none" fill="#000" font-family="Arial" font-size="12" text-anchor="end" color="#000"><tspan>pages+cached+noexternal+nocss</tspan></text><path stroke="#9400D3" d="M283.9 482h42.2M53.9 437.8l5.7-8 5.6-5.4 5.7-1.1 5.7-14.2 5.6-30.8 5.7-41.3 5.7-1.5 5.6-1.4 5.7-1.8 5.7-.4 5.6-.7 5.7-.7 5.7-1.5 5.6-.3 5.7-1.1 5.7-1.1 5.7-1.5 5.6-2.5 5.7-1.1h5.7l5.6-1.8 5.7-.4 5.7-1.1 5.6-.7 5.7-.7 5.7-.4 5.6-1.4 5.7-5.8 5.7-2.2h5.6l5.7-.7 5.7-.7h5.6l5.7-.4 5.7-1.5 5.6-1.8 5.7-.7 5.7-1.8 5.6-1.5 5.7-.3 5.7-.4 5.6-.3 5.7-1.5 5.7-1.1 5.6-1.1 5.7-2.9 5.7-1.1h5.6l5.7-.7 5.7-.3 5.7-.4 5.6-1.1 5.7-1.8 5.7-.4 5.6-1.4 5.7-3.6 5.7-1.1 5.6-.4 5.7-4.7 5.7-.4 5.6-.3 5.7-1.8 5.7-3.3 5.6-1.1 5.7-5.8 5.7-.7 5.6-4 5.7-1.1 5.7-.4 5.6-2.5 5.7-4 5.7-.3 5.6-1.1 5.7-5.1 5.7-1.5 5.6-.3 5.7-3.6 5.7-4 5.6-6.9 5.7-2.6 5.7-.7 5.6-4 5.7-2.1 5.7-3.7 5.7-6.1 5.6-10.9 5.7-5.1 5.7-8.3 5.6-7.3 5.7-3.2 5.7-6.6 5.6-1 5.7-4.8 5.7-6.5 5.6-25 5.7-18.5 5.7-2.5 5.6-36.6 5.7-43.2" fill="none" color="#000"/><text transform="translate(575.1 485.9)" stroke="none" fill="#000" font-family="Arial" font-size="12" text-anchor="end" color="#000"><tspan>pages+cached+noexternal+nojs</tspan></text><path stroke="#009E73" d="M583.4 482h42.2M53.9 410.2l5.7-8.3 5.6-16.7 5.7-6.2 5.7-41.3 5.6-11.2 5.7-.4 5.7-1.8 5.6-1.4 5.7-1.9 5.7-1.8 5.6-1.1 5.7-1.8 5.7-5.4h5.6l5.7-2.2 5.7-.3 5.7-2.9 5.6-1.5 5.7-.7 5.7-1.1 5.6-.7h5.7l5.7-2.2 5.6-2.5 5.7-6.9 5.7-1.5 5.6-.3h5.7l5.7-1.9 5.6-2.1h5.7l5.7-.8 5.6-1.8 5.7-.7 5.7-1.8 5.6-6.2 5.7-.3 5.7-3.3h5.6l5.7-2.5 5.7-1.8 5.6-1.5 5.7-2.5 5.7-.8h5.6l5.7-1.4 5.7-1.5 5.6-3.2 5.7-.7 5.7-1.5 5.7-.4h11.3l5.7-.3 5.6-.7 5.7-2.2 5.7-1.8 5.6-1.5 5.7-1.8 5.7-1.4 5.6-.8 5.7-1.8 5.7-5.8 5.6-1.1 5.7-4.3 5.7-1.1 5.6-.4 5.7-2.1 5.7-.8 5.6-2.1 5.7-1.5 5.7-.7 5.6-.4h5.7l5.7-.7 5.6-1.8 5.7-2.2 5.7-.7 5.6-1.8 5.7-2.9 5.7-4.4 5.6-4 5.7-2.5 5.7-3.6 5.7-1.1 5.6-5.5 5.7-5 5.7-.8 5.6-3.2 5.7-1.5 5.7-7.9 5.6-2.6 5.7-9.4 5.7-1.1 5.6-16.3 5.7-23.9 5.7-42.4 5.6-1.5 5.7-18.5" fill="none" color="#000"/><g fill="none" color="#000" stroke="currentColor"><path stroke="#000" d="M53.9 18.1V446H615V18.1H53.9z"/></g></svg>

<?xml version="1.0" encoding="utf-8"  standalone="no"?>
<svg 
 width="640" height="500"
 viewBox="0 0 640 500"
 xmlns="http://www.w3.org/2000/svg"
 xmlns:xlink="http://www.w3.org/1999/xlink"
>

<title>Gnuplot</title>
<desc>Produced by GNUPLOT 5.4 patchlevel 0 </desc>

<g id="gnuplot_canvas">

<rect x="0" y="0" width="640" height="500" fill="#ffffff"/>
<defs>

	<circle id='gpDot' r='0.5' stroke-width='0.5' stroke='currentColor'/>
	<path id='gpPt0' stroke-width='0.222' stroke='currentColor' d='M-1,0 h2 M0,-1 v2'/>
	<path id='gpPt1' stroke-width='0.222' stroke='currentColor' d='M-1,-1 L1,1 M1,-1 L-1,1'/>
	<path id='gpPt2' stroke-width='0.222' stroke='currentColor' d='M-1,0 L1,0 M0,-1 L0,1 M-1,-1 L1,1 M-1,1 L1,-1'/>
	<rect id='gpPt3' stroke-width='0.222' stroke='currentColor' x='-1' y='-1' width='2' height='2'/>
	<rect id='gpPt4' stroke-width='0.222' stroke='currentColor' fill='currentColor' x='-1' y='-1' width='2' height='2'/>
	<circle id='gpPt5' stroke-width='0.222' stroke='currentColor' cx='0' cy='0' r='1'/>
	<use xlink:href='#gpPt5' id='gpPt6' fill='currentColor' stroke='none'/>
	<path id='gpPt7' stroke-width='0.222' stroke='currentColor' d='M0,-1.33 L-1.33,0.67 L1.33,0.67 z'/>
	<use xlink:href='#gpPt7' id='gpPt8' fill='currentColor' stroke='none'/>
	<use xlink:href='#gpPt7' id='gpPt9' stroke='currentColor' transform='rotate(180)'/>
	<use xlink:href='#gpPt9' id='gpPt10' fill='currentColor' stroke='none'/>
	<use xlink:href='#gpPt3' id='gpPt11' stroke='currentColor' transform='rotate(45)'/>
	<use xlink:href='#gpPt11' id='gpPt12' fill='currentColor' stroke='none'/>
	<path id='gpPt13' stroke-width='0.222' stroke='currentColor' d='M0,1.330 L1.265,0.411 L0.782,-1.067 L-0.782,-1.076 L-1.265,0.411 z'/>
	<use xlink:href='#gpPt13' id='gpPt14' fill='currentColor' stroke='none'/>
	<filter id='textbox' filterUnits='objectBoundingBox' x='0' y='0' height='1' width='1'>
	  <feFlood flood-color='#FFFFFF' flood-opacity='1' result='bgnd'/>
	  <feComposite in='SourceGraphic' in2='bgnd' operator='atop'/>
	</filter>
	<filter id='greybox' filterUnits='objectBoundingBox' x='0' y='0' height='1' width='1'>
	  <feFlood flood-color='lightgrey' flood-opacity='1' result='grey'/>
	  <feComposite in='SourceGraphic' in2='grey' operator='atop'/>
	</filter>
</defs>
<g fill="none" color="#FFFFFF" stroke="black" stroke-width="1.00" stroke-linecap="butt" stroke-linejoin="miter">
</g>
<g fill="none" color="black" stroke="currentColor" stroke-width="1.00" stroke-linecap="butt" stroke-linejoin="miter">
	<path stroke='black'  d='M53.9,415.3 L62.9,415.3 M615.0,415.3 L606.0,415.3  '/>	<g transform="translate(45.6,419.2)" stroke="none" fill="black" font-family="Arial" font-size="12.00"  text-anchor="end">
		<text><tspan font-family="Arial" > 1.4</tspan></text>
	</g>
</g>
<g fill="none" color="black" stroke="currentColor" stroke-width="1.00" stroke-linecap="butt" stroke-linejoin="miter">
	<path stroke='black'  d='M53.9,342.8 L62.9,342.8 M615.0,342.8 L606.0,342.8  '/>	<g transform="translate(45.6,346.7)" stroke="none" fill="black" font-family="Arial" font-size="12.00"  text-anchor="end">
		<text><tspan font-family="Arial" > 1.6</tspan></text>
	</g>
</g>
<g fill="none" color="black" stroke="currentColor" stroke-width="1.00" stroke-linecap="butt" stroke-linejoin="miter">
	<path stroke='black'  d='M53.9,270.3 L62.9,270.3 M615.0,270.3 L606.0,270.3  '/>	<g transform="translate(45.6,274.2)" stroke="none" fill="black" font-family="Arial" font-size="12.00"  text-anchor="end">
		<text><tspan font-family="Arial" > 1.8</tspan></text>
	</g>
</g>
<g fill="none" color="black" stroke="currentColor" stroke-width="1.00" stroke-linecap="butt" stroke-linejoin="miter">
	<path stroke='black'  d='M53.9,197.8 L62.9,197.8 M615.0,197.8 L606.0,197.8  '/>	<g transform="translate(45.6,201.7)" stroke="none" fill="black" font-family="Arial" font-size="12.00"  text-anchor="end">
		<text><tspan font-family="Arial" > 2</tspan></text>
	</g>
</g>
<g fill="none" color="black" stroke="currentColor" stroke-width="1.00" stroke-linecap="butt" stroke-linejoin="miter">
	<path stroke='black'  d='M53.9,125.3 L62.9,125.3 M615.0,125.3 L606.0,125.3  '/>	<g transform="translate(45.6,129.2)" stroke="none" fill="black" font-family="Arial" font-size="12.00"  text-anchor="end">
		<text><tspan font-family="Arial" > 2.2</tspan></text>
	</g>
</g>
<g fill="none" color="black" stroke="currentColor" stroke-width="1.00" stroke-linecap="butt" stroke-linejoin="miter">
	<path stroke='black'  d='M53.9,52.8 L62.9,52.8 M615.0,52.8 L606.0,52.8  '/>	<g transform="translate(45.6,56.7)" stroke="none" fill="black" font-family="Arial" font-size="12.00"  text-anchor="end">
		<text><tspan font-family="Arial" > 2.4</tspan></text>
	</g>
</g>
<g fill="none" color="black" stroke="currentColor" stroke-width="1.00" stroke-linecap="butt" stroke-linejoin="miter">
	<path stroke='black'  d='M53.9,446.0 L53.9,437.0 M53.9,18.1 L53.9,27.1  '/>	<g transform="translate(53.9,467.9)" stroke="none" fill="black" font-family="Arial" font-size="12.00"  text-anchor="middle">
		<text><tspan font-family="Arial" > 0</tspan></text>
	</g>
</g>
<g fill="none" color="black" stroke="currentColor" stroke-width="1.00" stroke-linecap="butt" stroke-linejoin="miter">
	<path stroke='black'  d='M110.6,446.0 L110.6,437.0 M110.6,18.1 L110.6,27.1  '/>	<g transform="translate(110.6,467.9)" stroke="none" fill="black" font-family="Arial" font-size="12.00"  text-anchor="middle">
		<text><tspan font-family="Arial" > 10</tspan></text>
	</g>
</g>
<g fill="none" color="black" stroke="currentColor" stroke-width="1.00" stroke-linecap="butt" stroke-linejoin="miter">
	<path stroke='black'  d='M167.3,446.0 L167.3,437.0 M167.3,18.1 L167.3,27.1  '/>	<g transform="translate(167.3,467.9)" stroke="none" fill="black" font-family="Arial" font-size="12.00"  text-anchor="middle">
		<text><tspan font-family="Arial" > 20</tspan></text>
	</g>
</g>
<g fill="none" color="black" stroke="currentColor" stroke-width="1.00" stroke-linecap="butt" stroke-linejoin="miter">
	<path stroke='black'  d='M223.9,446.0 L223.9,437.0 M223.9,18.1 L223.9,27.1  '/>	<g transform="translate(223.9,467.9)" stroke="none" fill="black" font-family="Arial" font-size="12.00"  text-anchor="middle">
		<text><tspan font-family="Arial" > 30</tspan></text>
	</g>
</g>
<g fill="none" color="black" stroke="currentColor" stroke-width="1.00" stroke-linecap="butt" stroke-linejoin="miter">
	<path stroke='black'  d='M280.6,446.0 L280.6,437.0 M280.6,18.1 L280.6,27.1  '/>	<g transform="translate(280.6,467.9)" stroke="none" fill="black" font-family="Arial" font-size="12.00"  text-anchor="middle">
		<text><tspan font-family="Arial" > 40</tspan></text>
	</g>
</g>
<g fill="none" color="black" stroke="currentColor" stroke-width="1.00" stroke-linecap="butt" stroke-linejoin="miter">
	<path stroke='black'  d='M337.3,446.0 L337.3,437.0 M337.3,18.1 L337.3,27.1  '/>	<g transform="translate(337.3,467.9)" stroke="none" fill="black" font-family="Arial" font-size="12.00"  text-anchor="middle">
		<text><tspan font-family="Arial" > 50</tspan></text>
	</g>
</g>
<g fill="none" color="black" stroke="currentColor" stroke-width="1.00" stroke-linecap="butt" stroke-linejoin="miter">
	<path stroke='black'  d='M394.0,446.0 L394.0,437.0 M394.0,18.1 L394.0,27.1  '/>	<g transform="translate(394.0,467.9)" stroke="none" fill="black" font-family="Arial" font-size="12.00"  text-anchor="middle">
		<text><tspan font-family="Arial" > 60</tspan></text>
	</g>
</g>
<g fill="none" color="black" stroke="currentColor" stroke-width="1.00" stroke-linecap="butt" stroke-linejoin="miter">
	<path stroke='black'  d='M450.6,446.0 L450.6,437.0 M450.6,18.1 L450.6,27.1  '/>	<g transform="translate(450.6,467.9)" stroke="none" fill="black" font-family="Arial" font-size="12.00"  text-anchor="middle">
		<text><tspan font-family="Arial" > 70</tspan></text>
	</g>
</g>
<g fill="none" color="black" stroke="currentColor" stroke-width="1.00" stroke-linecap="butt" stroke-linejoin="miter">
	<path stroke='black'  d='M507.3,446.0 L507.3,437.0 M507.3,18.1 L507.3,27.1  '/>	<g transform="translate(507.3,467.9)" stroke="none" fill="black" font-family="Arial" font-size="12.00"  text-anchor="middle">
		<text><tspan font-family="Arial" > 80</tspan></text>
	</g>
</g>
<g fill="none" color="black" stroke="currentColor" stroke-width="1.00" stroke-linecap="butt" stroke-linejoin="miter">
	<path stroke='black'  d='M564.0,446.0 L564.0,437.0 M564.0,18.1 L564.0,27.1  '/>	<g transform="translate(564.0,467.9)" stroke="none" fill="black" font-family="Arial" font-size="12.00"  text-anchor="middle">
		<text><tspan font-family="Arial" > 90</tspan></text>
	</g>
</g>
<g fill="none" color="black" stroke="currentColor" stroke-width="1.00" stroke-linecap="butt" stroke-linejoin="miter">
</g>
<g fill="none" color="black" stroke="currentColor" stroke-width="1.00" stroke-linecap="butt" stroke-linejoin="miter">
	<path stroke='black'  d='M53.9,18.1 L53.9,446.0 L615.0,446.0 L615.0,18.1 L53.9,18.1 Z  '/></g>
<g fill="none" color="black" stroke="currentColor" stroke-width="1.00" stroke-linecap="butt" stroke-linejoin="miter">
</g>
	<g id="gnuplot_plot_1" ><title>pages+cached+noexternal+nocss</title>
<g fill="none" color="black" stroke="currentColor" stroke-width="1.00" stroke-linecap="butt" stroke-linejoin="miter">
	<g transform="translate(275.6,485.9)" stroke="none" fill="black" font-family="Arial" font-size="12.00"  text-anchor="end">
		<text><tspan font-family="Arial" >pages+cached+noexternal+nocss</tspan></text>
	</g>
</g>
<g fill="none" color="black" stroke="currentColor" stroke-width="1.00" stroke-linecap="butt" stroke-linejoin="miter">
	<path stroke='rgb(148,   0, 211)'  d='M283.9,482.0 L326.1,482.0 M53.9,437.8 L59.6,429.8 L65.2,424.4 L70.9,423.3 L76.6,409.1 L82.2,378.3
		L87.9,337.0 L93.6,335.5 L99.2,334.1 L104.9,332.3 L110.6,331.9 L116.2,331.2 L121.9,330.5 L127.6,329.0
		L133.2,328.7 L138.9,327.6 L144.6,326.5 L150.3,325.0 L155.9,322.5 L161.6,321.4 L167.3,321.4 L172.9,319.6
		L178.6,319.2 L184.3,318.1 L189.9,317.4 L195.6,316.7 L201.3,316.3 L206.9,314.9 L212.6,309.1 L218.3,306.9
		L223.9,306.9 L229.6,306.2 L235.3,305.5 L240.9,305.5 L246.6,305.1 L252.3,303.6 L257.9,301.8 L263.6,301.1
		L269.3,299.3 L274.9,297.8 L280.6,297.5 L286.3,297.1 L291.9,296.8 L297.6,295.3 L303.3,294.2 L308.9,293.1
		L314.6,290.2 L320.3,289.1 L325.9,289.1 L331.6,288.4 L337.3,288.1 L343.0,287.7 L348.6,286.6 L354.3,284.8
		L360.0,284.4 L365.6,283.0 L371.3,279.4 L377.0,278.3 L382.6,277.9 L388.3,273.2 L394.0,272.8 L399.6,272.5
		L405.3,270.7 L411.0,267.4 L416.6,266.3 L422.3,260.5 L428.0,259.8 L433.6,255.8 L439.3,254.7 L445.0,254.3
		L450.6,251.8 L456.3,247.8 L462.0,247.5 L467.6,246.4 L473.3,241.3 L479.0,239.8 L484.6,239.5 L490.3,235.9
		L496.0,231.9 L501.6,225.0 L507.3,222.4 L513.0,221.7 L518.6,217.7 L524.3,215.6 L530.0,211.9 L535.7,205.8
		L541.3,194.9 L547.0,189.8 L552.7,181.5 L558.3,174.2 L564.0,171.0 L569.7,164.4 L575.3,163.4 L581.0,158.6
		L586.7,152.1 L592.3,127.1 L598.0,108.6 L603.7,106.1 L609.3,69.5 L615.0,26.3  '/></g>
	</g>
	<g id="gnuplot_plot_2" ><title>pages+cached+noexternal+nojs</title>
<g fill="none" color="black" stroke="currentColor" stroke-width="1.00" stroke-linecap="butt" stroke-linejoin="miter">
	<g transform="translate(575.1,485.9)" stroke="none" fill="black" font-family="Arial" font-size="12.00"  text-anchor="end">
		<text><tspan font-family="Arial" >pages+cached+noexternal+nojs</tspan></text>
	</g>
</g>
<g fill="none" color="black" stroke="currentColor" stroke-width="1.00" stroke-linecap="butt" stroke-linejoin="miter">
	<path stroke='rgb(  0, 158, 115)'  d='M583.4,482.0 L625.6,482.0 M53.9,410.2 L59.6,401.9 L65.2,385.2 L70.9,379.0 L76.6,337.7 L82.2,326.5
		L87.9,326.1 L93.6,324.3 L99.2,322.9 L104.9,321.0 L110.6,319.2 L116.2,318.1 L121.9,316.3 L127.6,310.9
		L133.2,310.9 L138.9,308.7 L144.6,308.4 L150.3,305.5 L155.9,304.0 L161.6,303.3 L167.3,302.2 L172.9,301.5
		L178.6,301.5 L184.3,299.3 L189.9,296.8 L195.6,289.9 L201.3,288.4 L206.9,288.1 L212.6,288.1 L218.3,286.2
		L223.9,284.1 L229.6,284.1 L235.3,283.3 L240.9,281.5 L246.6,280.8 L252.3,279.0 L257.9,272.8 L263.6,272.5
		L269.3,269.2 L274.9,269.2 L280.6,266.7 L286.3,264.9 L291.9,263.4 L297.6,260.9 L303.3,260.1 L308.9,260.1
		L314.6,258.7 L320.3,257.2 L325.9,254.0 L331.6,253.3 L337.3,251.8 L343.0,251.4 L348.6,251.4 L354.3,251.4
		L360.0,251.1 L365.6,250.4 L371.3,248.2 L377.0,246.4 L382.6,244.9 L388.3,243.1 L394.0,241.7 L399.6,240.9
		L405.3,239.1 L411.0,233.3 L416.6,232.2 L422.3,227.9 L428.0,226.8 L433.6,226.4 L439.3,224.3 L445.0,223.5
		L450.6,221.4 L456.3,219.9 L462.0,219.2 L467.6,218.8 L473.3,218.8 L479.0,218.1 L484.6,216.3 L490.3,214.1
		L496.0,213.4 L501.6,211.6 L507.3,208.7 L513.0,204.3 L518.6,200.3 L524.3,197.8 L530.0,194.2 L535.7,193.1
		L541.3,187.6 L547.0,182.6 L552.7,181.8 L558.3,178.6 L564.0,177.1 L569.7,169.2 L575.3,166.6 L581.0,157.2
		L586.7,156.1 L592.3,139.8 L598.0,115.9 L603.7,73.5 L609.3,72.0 L615.0,53.5  '/></g>
	</g>
<g fill="none" color="#FFFFFF" stroke="rgb(  0, 158, 115)" stroke-width="2.00" stroke-linecap="butt" stroke-linejoin="miter">
</g>
<g fill="none" color="black" stroke="currentColor" stroke-width="2.00" stroke-linecap="butt" stroke-linejoin="miter">
</g>
<g fill="none" color="black" stroke="black" stroke-width="1.00" stroke-linecap="butt" stroke-linejoin="miter">
</g>
<g fill="none" color="black" stroke="currentColor" stroke-width="1.00" stroke-linecap="butt" stroke-linejoin="miter">
	<path stroke='black'  d='M53.9,18.1 L53.9,446.0 L615.0,446.0 L615.0,18.1 L53.9,18.1 Z  '/></g>
<g fill="none" color="black" stroke="currentColor" stroke-width="1.00" stroke-linecap="butt" stroke-linejoin="miter">
</g>
</g>
</svg>
